X:1
T:Title
%%score { ( 1 4 ) | ( 2 3 ) }
L:1/8
M:4/4
K:Ab
V:1 treble nm="Grand Piano"
V:4 treble 
V:2 bass 
V:3 bass 
V:1
 z4 z2[Q:1/4=100] [CA][DB] | [Ec]2 [CE]2 [CE]2 [Ec][Ec] | [FB]2 [FA]2 [Fd]2 [Fd][Fd] | %3
 [Ec]2 [CEA]2 [CE]2 [Ec][Ec] | [EB][=DA][B,DG]F E2 EE | B2 c2 d2 BB | c2 B2 A2 [=EG]G | %7
 [A,F]2 [=A,EF]2 [B,DF]2 [DFB]2 |[M:3/4] [CEA]2 [B,DG]2 [A,CA]2 |[M:1/4] [CA][DB] | %10
[M:4/4] [Ec]2 [CE]2 [CE]2 [_Gc]2 | [FB]2 [FA]2 z4 | [Ec]2 [=EB]2 [FA]2 [Ae]2 |[M:9/8] z2 c z3 z3 | %14
[M:4/4] [Ec]2 [CE]2 [CE]2 [_Gc]2 |[M:9/8] [FB]2 [FA]- [FA] z z z3 |[M:4/4] c2 BB A2 [Fd]2 | %17
[M:7/8] [Ec]2 [DB]2 [CA]3 |] %18
V:2
 z4 z2 [A,,E,]2 | [A,,A,]2 [A,,A,]2 [A,,A,]2 [A,,A,][A,,A,] | %2
 [D,A,]2 [D,A,]2 [D,A,]2 [D,A,][D,A,] | [A,,A,]2 A,,2 A,,2 [A,,A,]2 | %4
 G,F, z [A,B,] [E,G,B,]2 [E,G,][E,G,] | [E,G,E]2 [E,A,E]2 [E,B,E]2 [E,G,E][E,G,E] | %6
 [A,E]2 [E,G,D]2 [F,A,C]2 z =E | D,2 C,2 B,,2 B,,2 |[M:3/4] E,2 E,2 A,,2 |[M:1/4] [A,,E,]2 | %10
[M:4/4] [A,,A,][A,,A,][A,,A,][A,,A,] [A,,A,]2 [C,A,]2 | [D,A,]D,D,D, [D,A,]2 [D,A,][D,A,] | %12
 [E,A,]E,C,C, F,F,A,,A,, |[M:9/8] [B,,B,][B,,B,][B,,B,] [B,,B,] [E,B,]2- [E,B,][E,G,][E,G,] | %14
[M:4/4] [A,,A,][A,,A,][A,,A,][A,,A,] [A,,A,]2 [C,A,]2 | %15
[M:9/8] [D,A,]D,D, D, [D,A,]2- [D,A,][D,A,][D,A,] | %16
[M:4/4] [E,A,E]2 [E,G,D][E,G,D] [F,A,C]2 [D,A,]2 |[M:7/8] [E,A,]2 [E,G,]2 [A,,A,]3 |] %18
V:3
 x8 | x8 | x8 | x8 | B,,2 B,,2 z4 | x8 | z4 z2 [C,B,]2 | x8 |[M:3/4] x6 |[M:1/4] x2 |[M:4/4] x8 | %11
 x8 | x8 |[M:9/8] x9 |[M:4/4] x8 |[M:9/8] x9 |[M:4/4] x8 |[M:7/8] x7 |] %18
V:4
 x8 | x8 | x8 | x8 | x8 | x8 | x8 | x8 |[M:3/4] x6 |[M:1/4] x2 |[M:4/4] x8 | %11
 z A,A,A, [Fd]2 [Fd][Fd] | z A,CC CCCC |[M:9/8] [A=d]2 A- [Ad] [Ge]2- [Ge][E_d][Ed] |[M:4/4] x8 | %15
[M:9/8] z A,A, A, [Fd]2- [Fd][Fd][Fd] |[M:4/4] x8 |[M:7/8] x7 |] %18

